app/assets/images/heroicons/micro/cog-6-tooth.svg

<svg width="16" height="16" viewBox="0 0 16 16" fill="none" xmlns="http://www.w3.org/2000/svg">
<path fill-rule="evenodd" clip-rule="evenodd" d="M6.45498 1.45025C6.48054 1.19465 6.69562 1 6.9525 1H9.04751C9.30438 1 9.51947 1.19465 9.54503 1.45025L9.73077 3.30766C10.2693 3.50637 10.7642 3.79513 11.1973 4.15568L12.9001 3.38721C13.1342 3.28155 13.4103 3.37049 13.5387 3.59295L14.5863 5.40728C14.7147 5.62975 14.6537 5.91334 14.4451 6.06327L12.9286 7.15339C12.9756 7.42858 13 7.71143 13 8C13 8.28864 12.9755 8.57157 12.9286 8.84682L14.4451 9.93696C14.6537 10.0869 14.7147 10.3705 14.5863 10.5929L13.5387 12.4073C13.4103 12.6297 13.1342 12.7187 12.9001 12.613L11.1971 11.8445C10.7641 12.205 10.2692 12.4937 9.73077 12.6923L9.54503 14.5498C9.51947 14.8054 9.30439 15 9.04751 15H6.9525C6.69562 15 6.48054 14.8054 6.45498 14.5498L6.26924 12.6923C5.73071 12.4936 5.23579 12.2049 4.80275 11.8443L3.09994 12.6128C2.86581 12.7185 2.58969 12.6295 2.46126 12.4071L1.41375 10.5927C1.28531 10.3703 1.34634 10.0867 1.55492 9.93673L3.07138 8.84661C3.02445 8.57142 3 8.28857 3 8C3 7.71136 3.02446 7.42843 3.07142 7.15318L1.55492 6.06304C1.34634 5.9131 1.28531 5.62951 1.41375 5.40705L2.46126 3.59272C2.58969 3.37025 2.8658 3.28131 3.09994 3.38698L4.80293 4.15552C5.23593 3.79505 5.73079 3.50634 6.26924 3.30766L6.45498 1.45025ZM6.27751 9.01699L6.25615 8.98C6.09305 8.69039 6 8.35606 6 8C6 6.89543 6.89543 6 8 6C8.73327 6 9.37437 6.39461 9.72253 6.98306L9.74383 7.01995C9.90695 7.30957 10 7.64392 10 8C10 9.10457 9.10457 10 8 10C7.26676 10 6.62567 9.60541 6.27751 9.01699Z" fill="#0F172A"/>
</svg>

<svg xmlns="http://www.w3.org/2000/svg" viewBox="0 0 16 16" fill="currentColor" aria-hidden="true" data-slot="icon">
  <path fill-rule="evenodd" d="M6.455 1.45A.5.5 0 0 1 6.952 1h2.096a.5.5 0 0 1 .497.45l.186 1.858a4.996 4.996 0 0 1 1.466.848l1.703-.769a.5.5 0 0 1 .639.206l1.047 1.814a.5.5 0 0 1-.14.656l-1.517 1.09a5.026 5.026 0 0 1 0 1.694l1.516 1.09a.5.5 0 0 1 .141.656l-1.047 1.814a.5.5 0 0 1-.639.206l-1.703-.768c-.433.36-.928.649-1.466.847l-.186 1.858a.5.5 0 0 1-.497.45H6.952a.5.5 0 0 1-.497-.45l-.186-1.858a4.993 4.993 0 0 1-1.466-.848l-1.703.769a.5.5 0 0 1-.639-.206l-1.047-1.814a.5.5 0 0 1 .14-.656l1.517-1.09a5.033 5.033 0 0 1 0-1.694l-1.516-1.09a.5.5 0 0 1-.141-.656L2.46 3.593a.5.5 0 0 1 .639-.206l1.703.769c.433-.36.928-.65 1.466-.848l.186-1.858Zm-.177 7.567-.022-.037a2 2 0 0 1 3.466-1.997l.022.037a2 2 0 0 1-3.466 1.997Z" clip-rule="evenodd"/>
</svg>
